src/assets/duotone/People.svg

<svg width="24" height="24" viewBox="0 0 24 24"  xmlns="http://www.w3.org/2000/svg">
<path opacity="0.4" d="M17.53 7.77C17.46 7.76 17.39 7.76 17.32 7.77C15.77 7.72 14.54 6.45 14.54 4.89C14.54 3.3 15.83 2 17.43 2C19.02 2 20.32 3.29 20.32 4.89C20.31 6.45 19.08 7.72 17.53 7.77Z" />
<path opacity="0.4" d="M20.7901 14.6999C19.6701 15.4499 18.1001 15.7299 16.6501 15.5399C17.0301 14.7199 17.2301 13.8099 17.2401 12.8499C17.2401 11.8499 17.0201 10.8999 16.6001 10.0699C18.0801 9.86992 19.6501 10.1499 20.7801 10.8999C22.3601 11.9399 22.3601 13.6499 20.7901 14.6999Z" />
<path opacity="0.4" d="M6.4399 7.77C6.5099 7.76 6.5799 7.76 6.6499 7.77C8.1999 7.72 9.4299 6.45 9.4299 4.89C9.4299 3.3 8.1399 2 6.5399 2C4.9499 2 3.6499 3.29 3.6499 4.89C3.6599 6.45 4.8899 7.72 6.4399 7.77Z" />
<path opacity="0.4" d="M6.55012 12.8501C6.55012 13.8201 6.76012 14.7401 7.14012 15.5701C5.73012 15.7201 4.26012 15.4201 3.18012 14.7101C1.60012 13.6601 1.60012 11.9501 3.18012 10.9001C4.25012 10.1801 5.76012 9.8901 7.18012 10.0501C6.77012 10.8901 6.55012 11.8401 6.55012 12.8501Z" />
<path d="M12.1198 15.87C12.0398 15.86 11.9498 15.86 11.8598 15.87C10.0198 15.81 8.5498 14.3 8.5498 12.44C8.5498 10.54 10.0798 9 11.9898 9C13.8898 9 15.4298 10.54 15.4298 12.44C15.4298 14.3 13.9698 15.81 12.1198 15.87Z" />
<path d="M8.8698 17.9401C7.3598 18.9501 7.3598 20.6101 8.8698 21.6101C10.5898 22.7601 13.4098 22.7601 15.1298 21.6101C16.6398 20.6001 16.6398 18.9401 15.1298 17.9401C13.4198 16.7901 10.5998 16.7901 8.8698 17.9401Z" />
</svg>

<?xml version="1.0" encoding="UTF-8"?>
<svg width="24" height="24" viewBox="0 0 24 24" xmlns="http://www.w3.org/2000/svg">
 <path d="m17.53 7.77c-0.07-0.01-0.14-0.01-0.21 0-1.55-0.05-2.78-1.32-2.78-2.88 0-1.59 1.29-2.89 2.89-2.89 1.59 0 2.89 1.29 2.89 2.89-0.01 1.56-1.24 2.83-2.79 2.88z" opacity=".4"/>
 <path d="m20.79 14.7c-1.12 0.75-2.69 1.03-4.14 0.84 0.38-0.82 0.58-1.73 0.59-2.69 0-1-0.22-1.95-0.64-2.78 1.48-0.19998 3.05 0.08 4.18 0.83 1.58 1.04 1.58 2.75 0.01 3.8z" opacity=".4"/>
 <path d="m6.4399 7.77c0.07-0.01 0.14-0.01 0.21 0 1.55-0.05 2.78-1.32 2.78-2.88 0-1.59-1.29-2.89-2.89-2.89-1.59 0-2.89 1.29-2.89 2.89 0.01 1.56 1.24 2.83 2.79 2.88z" opacity=".4"/>
 <path d="m6.5501 12.85c0 0.97 0.21 1.89 0.59 2.72-1.41 0.15-2.88-0.15-3.96-0.86-1.58-1.05-1.58-2.76 0-3.81 1.07-0.72 2.58-1.01 4-0.85-0.41 0.84-0.63 1.79-0.63 2.8z" opacity=".4"/>
 <path d="m12.12 15.87c-0.08-0.01-0.17-0.01-0.26 0-1.84-0.06-3.31-1.57-3.31-3.43 0-1.9 1.53-3.44 3.44-3.44 1.9 0 3.44 1.54 3.44 3.44 0 1.86-1.46 3.37-3.31 3.43z"/>
 <path d="m8.8698 17.94c-1.51 1.01-1.51 2.67 0 3.67 1.72 1.15 4.54 1.15 6.26 0 1.51-1.01 1.51-2.67 0-3.67-1.71-1.15-4.53-1.15-6.26 0z"/>
</svg>
